dist/img/svg/support3.svg

<svg width="84" height="84" viewBox="0 0 84 84" fill="none" xmlns="http://www.w3.org/2000/svg">
<g clip-path="url(#clip0)">
<g filter="url(#filter0_d)">
<path d="M100.438 42C97.1624 42 94.3758 39.7167 93.2339 36.6466C92.8618 35.6462 92.4544 34.663 92.013 33.6985C90.6499 30.7197 91.0056 27.1344 93.322 24.818C94.712 23.428 94.712 21.172 93.322 19.782L84.216 10.676C82.826 9.286 80.57 9.286 79.18 10.676C76.8636 12.9924 73.2782 13.3485 70.2992 11.9857C69.3355 11.5448 68.3531 11.1378 67.3534 10.766C64.2832 9.62424 62 6.83761 62 3.562C62 1.594 60.406 0 58.438 0H45.56C43.594 0 42 1.594 42 3.562C42 6.83761 39.7167 9.6242 36.6466 10.7661C35.6457 11.1383 34.6621 11.546 33.6972 11.9876C30.7194 13.3504 27.1351 12.9942 24.82 10.678C23.43 9.288 21.174 9.288 19.784 10.678L10.678 19.784C9.288 21.174 9.288 23.43 10.678 24.82C12.9943 27.1363 13.3496 30.7216 11.9864 33.7001C11.5453 34.6641 11.138 35.6467 10.7661 36.6466C9.62416 39.7167 6.83761 42 3.562 42C1.594 42 0 43.594 0 45.562V58.44C0 60.406 1.594 62 3.562 62C6.83761 62 9.6242 64.2833 10.7661 67.3534C11.1383 68.3543 11.546 69.3379 11.9876 70.3028C13.3504 73.2806 12.9942 76.8649 10.678 79.18C9.288 80.572 9.288 82.826 10.678 84.216L19.784 93.322C21.174 94.712 23.43 94.712 24.82 93.322C27.1366 91.0054 30.7219 90.649 33.7009 92.0123C34.6653 92.4537 35.6484 92.8612 36.6488 93.2334C39.7188 94.3757 42.002 97.1624 42.002 100.438C42 102.406 43.594 104 45.562 104H58.44C60.406 104 62 102.406 62 100.438C62 97.1624 64.2833 94.3758 67.3534 93.2339C68.3538 92.8618 69.337 92.4544 70.3015 92.013C73.2803 90.6499 76.8656 91.0056 79.182 93.322C80.572 94.712 82.828 94.712 84.218 93.322L93.324 84.216C94.714 82.826 94.714 80.57 93.324 79.18C91.0076 76.8636 90.6514 73.2781 92.0142 70.2991C92.4554 69.3347 92.8627 68.3515 93.2348 67.3511C94.3769 64.2807 97.1641 61.998 100.44 61.998C102.406 62 104 60.406 104 58.438V45.56C104 43.594 102.406 42 100.438 42ZM52 70C42.058 70 34 61.94 34 52C34 42.058 42.058 34 52 34C61.942 34 70 42.058 70 52C70 61.94 61.942 70 52 70Z" fill="#F5F5F5"/>
</g>
<path d="M52 26C37.64 26 26 37.64 26 52C26 66.36 37.64 78 52 78C66.36 78 78 66.36 78 52C78 37.64 66.36 26 52 26ZM52 70C42.058 70 34 61.94 34 52C34 42.058 42.058 34 52 34C61.942 34 70 42.058 70 52C70 61.94 61.942 70 52 70Z" fill="#F14D34"/>
</g>
<defs>
<filter id="filter0_d" x="-1" y="0" width="106" height="106" filterUnits="userSpaceOnUse" color-interpolation-filters="sRGB">
<feFlood flood-opacity="0" result="BackgroundImageFix"/>
<feColorMatrix in="SourceAlpha" type="matrix" values="0 0 0 0 0 0 0 0 0 0 0 0 0 0 0 0 0 0 127 0"/>
<feOffset dy="1"/>
<feGaussianBlur stdDeviation="0.5"/>
<feColorMatrix type="matrix" values="0 0 0 0 0 0 0 0 0 0 0 0 0 0 0 0 0 0 0.1 0"/>
<feBlend mode="normal" in2="BackgroundImageFix" result="effect1_dropShadow"/>
<feBlend mode="normal" in="SourceGraphic" in2="effect1_dropShadow" result="shape"/>
</filter>
<clipPath id="clip0">
<rect width="104" height="104" fill="white"/>
</clipPath>
</defs>
</svg>

<svg width="84" height="84" fill="none" xmlns="http://www.w3.org/2000/svg"><g clip-path="url(#clip0)"><g filter="url(#filter0_d)"><path d="M100.438 42c-3.276 0-6.062-2.283-7.204-5.353-.372-1-.78-1.984-1.221-2.948-1.363-2.98-1.007-6.565 1.309-8.881a3.562 3.562 0 000-5.036l-9.106-9.106a3.562 3.562 0 00-5.036 0c-2.316 2.316-5.902 2.672-8.88 1.31a43.671 43.671 0 00-2.947-1.22C64.283 9.624 62 6.838 62 3.562A3.561 3.561 0 0058.438 0H45.56A3.56 3.56 0 0042 3.562c0 3.276-2.283 6.062-5.353 7.204-1.001.372-1.985.78-2.95 1.222-2.978 1.362-6.562 1.006-8.877-1.31a3.562 3.562 0 00-5.036 0l-9.106 9.106a3.562 3.562 0 000 5.036c2.316 2.316 2.672 5.902 1.308 8.88a43.665 43.665 0 00-1.22 2.947C9.624 39.717 6.838 42 3.562 42A3.561 3.561 0 000 45.562V58.44A3.56 3.56 0 003.562 62c3.276 0 6.062 2.283 7.204 5.353.372 1.001.78 1.985 1.222 2.95 1.362 2.978 1.006 6.562-1.31 8.877a3.562 3.562 0 000 5.036l9.106 9.106a3.562 3.562 0 005.036 0c2.317-2.317 5.902-2.673 8.88-1.31.965.442 1.948.85 2.949 1.221 3.07 1.143 5.353 3.93 5.353 7.205a3.558 3.558 0 003.56 3.562H58.44a3.56 3.56 0 003.56-3.562c0-3.276 2.283-6.062 5.353-7.204 1-.372 1.984-.78 2.949-1.221 2.978-1.363 6.564-1.007 8.88 1.309a3.562 3.562 0 005.036 0l9.106-9.106a3.562 3.562 0 000-5.036c-2.316-2.316-2.673-5.902-1.31-8.88.441-.965.849-1.948 1.22-2.949 1.143-3.07 3.93-5.353 7.206-5.353a3.558 3.558 0 003.56-3.56V45.56a3.56 3.56 0 00-3.562-3.56zM52 70c-9.942 0-18-8.06-18-18 0-9.942 8.058-18 18-18s18 8.058 18 18c0 9.94-8.058 18-18 18z" fill="#F5F5F5"/></g><path d="M52 26c-14.36 0-26 11.64-26 26s11.64 26 26 26 26-11.64 26-26-11.64-26-26-26zm0 44c-9.942 0-18-8.06-18-18 0-9.942 8.058-18 18-18s18 8.058 18 18c0 9.94-8.058 18-18 18z" fill="#F14D34"/></g><defs><clipPath id="clip0"><path fill="#fff" d="M0 0h104v104H0z"/></clipPath><filter id="filter0_d" x="-1" y="0" width="106" height="106" filterUnits="userSpaceOnUse" color-interpolation-filters="sRGB"><feFlood flood-opacity="0" result="BackgroundImageFix"/><feColorMatrix in="SourceAlpha" values="0 0 0 0 0 0 0 0 0 0 0 0 0 0 0 0 0 0 127 0"/><feOffset dy="1"/><feGaussianBlur stdDeviation=".5"/><feColorMatrix values="0 0 0 0 0 0 0 0 0 0 0 0 0 0 0 0 0 0 0.1 0"/><feBlend in2="BackgroundImageFix" result="effect1_dropShadow"/><feBlend in="SourceGraphic" in2="effect1_dropShadow" result="shape"/></filter></defs></svg>
